remix/System/delete-bin-6-fill.svg

<svg viewBox="0 0 24 24" xmlns="http://www.w3.org/2000/svg"><path fill="none" d="M0 0h24v24H0Z"/><path d="M17 4h5v2h-2v15 0c0 .55-.45 1-1 1H5v0c-.56 0-1-.45-1-1V6H2V4h5V2h10v2ZM9 9v8h2V9H9Zm4 0v8h2V9h-2Z"/></svg>

<svg viewBox="0 0 24 24" fill="currentColor" xmlns="http://www.w3.org/2000/svg"><path d="M17 4H22V6H20V21C20 21.5523 19.5523 22 19 22H5C4.44772 22 4 21.5523 4 21V6H2V4H7V2H17V4ZM9 9V17H11V9H9ZM13 9V17H15V9H13Z"/></svg>
